X:1
T:Bring Many Names
T:Bring Many Names
T:Carlton Raymond Young, 1987
T:Brian Wren, 1987
T:© 1989 Hope Publishing Company Courtesy of the Cyber Hymnal™
T:© 1989 Hope Publishing Company Courtesy of the Cyber Hymnal™
C:Carlton Raymond Young, 1987
Z:© 1989 Hope Publishing Company
Z:Courtesy of the Cyber Hymnal™
%%score ( 1 2 ) ( 3 4 )
L:1/8
Q:1/4=115
M:2/2
K:Eb
V:1 treble 
V:2 treble 
V:3 bass 
V:4 bass 
V:1
 E4 F2 G2 | C8 | [A,F]3 [A,F] [B,G]2 [CA]2 | D8 | G3 G A2 B2 | E2 E2 F2 G2 | [EF]4 [DF]4 | %7
w: 1.~Bring ma- ny|names,|beau- ti- ful and|good,|Cel- e- brate, in|par- a- ble and|sto- ry,|
w: 2.~Strong mo- ther|God,|work- ing night and|day,|Plan- ning all the|won- ders of cre-|a- tion,|
w: 3.~Warm fa- ther|God,|hug- ging ev- ery|child,|Feel- ing all the|strains of hu- man|liv- ing,|
w: 4.~Old, ach- ing|God,|grey with end- less|care,|Calm- ly pierc- ing|e- vil’s new dis-|guis- es,|
w: 5.~Young, grow- ing|God,|ea- ger, on the|move,|Say- ing no to|false- hood and un-|kind- ness,|
w: 6.~Great, liv- ing|God,|ne- ver ful- ly|known,|Joy- ful dark- ness|far bey- ond our|see- ing,|
 E2 E2 F2 G2 | [B,C]4 [A,C]4 | [A,F]3 [A,F] [B,G]2 [CA]2 | D8 | [B,EG]4 [CEA]2 [B,EB]2 | %12
w: Ho- li- ness in|glo- ry,|liv- ing, lov- ing|God.|Hail and Ho-|
w: Set- ting each e-|qua- tion,|gen- i- us at|play:|Hail and Ho-|
w: Car- ing and for-|giv- ing,|till we’re re- con-|ciled:|Hail and Ho-|
w: Glad of good sur-|pris- es,|wis- er than de-|spair:|Hail and Ho-|
w: Cry- ing out for|jus- tice,|giv- ing all you|have:|Hail and Ho-|
w: Clos- er yet than|breath- ing,|ev- er- last- ing|home:|Hail and Ho-|
 [DBd]4 [CAc]4 |1,2,3,4,5 B4 (ED) A2 G2 | F8 :|6 B4 [CA]2 [DF]2 || E8 |] %17
w: san- na!|Bring ma- * ny names!||||
w: san- na,|strong mo- * ther God!||||
w: san- na,|warm fa- * ther God!||||
w: san- na,|old, ach- * ing God!||||
w: san- na,|young, grow- * ing God!||||
w: san- na,|~ ~ * ~ ~|great,|liv- ing God!||
V:2
 x4 C4 | (B,4 A,4) | x8 | (C4 B,4) | B,4 E4 | B,4 C4 | x8 | x8 | x8 | x8 | (C4 B,4) | x8 | %12
 x8 |1,2,3,4,5 ([B,-F]2 B,2) C4 x2 | (E4 D4) :|6 (E2 D2) x4 || x8 |] %17
V:3
 [E,,G,]4 [E,A,]4 | E,8 | F,,4 F,4 | [B,,F,]8 | E,4 F,4 | [G,,E,]4 [A,,E,]4 | F,4 B,4 | %7
 G,2 G,2 A,2 B,2 | E,8 | F,,4 F,4 | [B,,F,]8 | [E,,B,,]4 [F,,C,]2 [G,,D,]2 | E,6 F,2 |1,2,3,4,5 %13
 [G,,G,]4 F,2 E,2 x2 | [B,,F,]8 :|6 G,4 F,2 A,2 || [E,G,]8 |] %17
V:4
 x8 | (A,,6 G,,2) | x8 | x8 | x8 | x8 | B,,8 | E,,4 E,4 | A,,6 G,,2 | x8 | x8 | x8 | %12
 A,,8 |1,2,3,4,5 x4 A,,4 x2 | x8 :|6 B,,8 || x8 |] %17

